X: 1
T: Pee In The Dark
M: 4/4
L: 1/8
R: reel
K: Amix
|:cA ~A2 eGAf|AAgA ~A2 eA|cA ~A2 eGAf|AAec cB ~B2|
cA ~A2 eGAf|AAgA ~A2 eA|cA ~A2 eA ~A2|GA ~A2 A4:|
|:eAAc AAeA|eGGc GGeG|eAAc AAeA|GA ~A2 Aaag|
eAAc AAeA|eGGc GGeG|eAAc AAeA|GA ~A2 A4:|
